packages/web/src/public/images/camera.svg

<svg width="60" height="60" viewBox="0 0 60 60" fill="none" xmlns="http://www.w3.org/2000/svg">
<path d="M11.8482 17.1748V8.60184C11.8482 7.87574 11.2595 7.28711 10.5334 7.28711H6.15262C5.42652 7.28711 4.83789 7.87574 4.83789 8.60184V17.1748" fill="#E5E9EA"/>
<path d="M8.02152 17.1748V7.28711H6.15262C5.42652 7.28711 4.83789 7.87574 4.83789 8.60184V17.1748" fill="#D1D1D1"/>
<path d="M60 18.7373V50.8128C60 53.012 58.2171 54.7949 56.018 54.7949H3.98203C1.78289 54.7949 0 53.012 0 50.8128V18.7373C0 16.5382 1.78289 14.7553 3.98203 14.7553H11.8559C13.5518 14.7553 15.0628 13.6814 15.6187 12.0786L17.0722 7.88354C17.6282 6.28065 19.1379 5.20557 20.8351 5.20557H44.0633C45.7593 5.20557 47.269 6.28065 47.8249 7.88354L49.2796 12.0786C49.8355 13.6815 51.3452 14.7553 53.0412 14.7553H56.0179C58.2171 14.7553 60 16.5382 60 18.7373Z" fill="#FCB65F"/>
<path d="M7.10449 54.7949H3.98203C1.78289 54.7949 0 53.0121 0 50.8129V18.7374C0 16.5383 1.78289 14.7554 3.98203 14.7554H6.85711V14.7628C4.77305 14.8913 3.12246 16.6216 3.12246 18.7374V50.8129C3.12246 53.0122 4.90535 54.7949 7.10449 54.7949Z" fill="#E29A4B"/>
<path d="M23.9578 5.20557C22.2607 5.20557 20.7508 6.28065 20.1949 7.88354L18.7414 12.0786C18.1855 13.6815 16.6745 14.7553 14.9785 14.7553H12.3066V14.7296C13.8152 14.5582 15.1132 13.5382 15.6188 12.0786L17.0723 7.88354C17.6282 6.28065 19.138 5.20557 20.8352 5.20557C20.8354 5.20557 23.9578 5.20557 23.9578 5.20557Z" fill="#E29A4B"/>
<path d="M60 25.5918V50.8127C60 53.0118 58.2171 54.7947 56.018 54.7947H3.98203C1.78289 54.7947 0 53.0118 0 50.8127V25.5918H60Z" fill="#6A80F5"/>
<path d="M7.10449 54.7946H3.98203C1.78289 54.7946 0 53.0117 0 50.8125V25.5918H3.12246V50.8127C3.12246 53.0118 4.90535 54.7946 7.10449 54.7946Z" fill="#5B70DE"/>
<path d="M29.9988 51.0601C39.1615 51.0601 46.5894 43.6322 46.5894 34.4695C46.5894 25.3068 39.1615 17.8789 29.9988 17.8789C20.8361 17.8789 13.4082 25.3068 13.4082 34.4695C13.4082 43.6322 20.8361 51.0601 29.9988 51.0601Z" fill="#F3F5FA"/>
<path d="M41.7299 34.4695C41.7299 37.9238 40.2373 41.029 37.8605 43.1768C35.7802 45.0564 33.025 46.2012 29.9993 46.2012C26.9748 46.2012 24.2185 45.0563 22.1382 43.1767C19.7615 41.0302 18.2676 37.9237 18.2676 34.4694C18.2676 31.015 19.7615 27.9085 22.1382 25.7633C24.2186 23.8824 26.9748 22.7388 29.9993 22.7388C33.025 22.7388 35.7802 23.8837 37.8605 25.7633C40.2373 27.9099 41.7299 31.0151 41.7299 34.4695Z" fill="#566368"/>
<path d="M38.2943 26.174C40.7368 28.6166 41.8772 31.8678 41.7152 35.0671C38.5159 35.229 35.2646 34.0887 32.8221 31.6462C30.3795 29.2037 29.2392 25.9524 29.402 22.754C32.6004 22.5912 35.8517 23.7316 38.2943 26.174Z" fill="#6F7B7F"/>
<path d="M27.1772 37.2918C29.6198 39.7344 30.7601 42.9856 30.5982 46.185C27.3997 46.3477 24.1466 45.2075 21.7042 42.7648C19.2617 40.3223 18.1213 37.0693 18.2849 33.8717C21.4834 33.7088 24.7347 34.8492 27.1772 37.2918Z" fill="#6F7B7F"/>
<path d="M29.9991 47.1187C23.0242 47.1187 17.3496 41.4442 17.3496 34.4693C17.3496 27.4944 23.0242 21.8198 29.9991 21.8198C36.9739 21.8198 42.6485 27.4943 42.6485 34.4693C42.6485 41.4443 36.9739 47.1187 29.9991 47.1187ZM29.9991 23.6565C24.0369 23.6565 19.1863 28.5071 19.1863 34.4693C19.1863 40.4314 24.0369 45.2821 29.9991 45.2821C35.9612 45.2821 40.8118 40.4314 40.8118 34.4693C40.8118 28.5071 35.9612 23.6565 29.9991 23.6565Z" fill="#435054"/>
<path d="M29.9982 29.7603C27.4016 29.7603 25.2891 31.8728 25.2891 34.4696C25.2891 37.0663 27.4016 39.1787 29.9982 39.1787C32.5949 39.1787 34.7074 37.0662 34.7074 34.4696C34.7074 31.8729 32.5949 29.7603 29.9982 29.7603Z" fill="#435054"/>
<path d="M35.9602 13.8371H43.1769C44.1257 13.8371 44.8949 13.068 44.8949 12.1192V10.2287C44.8949 9.27996 44.1258 8.51074 43.1769 8.51074H35.9602C35.0114 8.51074 34.2422 9.27984 34.2422 10.2287V12.1192C34.2422 13.0679 35.0114 13.8371 35.9602 13.8371Z" fill="#E5E9EA"/>
<path d="M43.1773 14.7557H35.9606C34.5069 14.7557 33.3242 13.5731 33.3242 12.1194V10.2291C33.3242 8.77543 34.5069 7.59277 35.9606 7.59277H43.1773C44.6311 7.59277 45.8137 8.77543 45.8137 10.2291V12.1195C45.8136 13.5732 44.6309 14.7557 43.1773 14.7557ZM35.9606 9.42945C35.5196 9.42945 35.161 9.78816 35.161 10.229V12.1194C35.161 12.5604 35.5196 12.9189 35.9606 12.9189H43.1773C43.6183 12.9189 43.9769 12.5602 43.9769 12.1194V10.2291C43.9769 9.78816 43.6182 9.42957 43.1773 9.42957C43.1773 9.42945 35.9606 9.42945 35.9606 9.42945Z" fill="#E29A4B"/>
<path d="M11.4068 51.3956C13.2409 51.3956 14.7277 49.9088 14.7277 48.0748C14.7277 46.2407 13.2409 44.7539 11.4068 44.7539C9.57274 44.7539 8.08594 46.2407 8.08594 48.0748C8.08594 49.9088 9.57274 51.3956 11.4068 51.3956Z" fill="#323B6F"/>
</svg>

<svg width="60" height="60" fill="none" xmlns="http://www.w3.org/2000/svg"><path d="M11.848 17.175V8.602c0-.726-.589-1.315-1.315-1.315h-4.38c-.726 0-1.315.589-1.315 1.315v8.573" fill="#E5E9EA"/><path d="M8.022 17.175V7.287h-1.87c-.725 0-1.314.589-1.314 1.315v8.573" fill="#D1D1D1"/><path d="M60 18.737v32.076c0 2.199-1.783 3.982-3.982 3.982H3.982A3.982 3.982 0 010 50.813V18.737c0-2.199 1.783-3.982 3.982-3.982h7.874a3.983 3.983 0 003.763-2.676l1.453-4.195a3.983 3.983 0 013.763-2.678h23.228a3.982 3.982 0 013.762 2.678l1.455 4.195a3.98 3.98 0 003.761 2.676h2.977c2.2 0 3.982 1.783 3.982 3.982z" fill="#FCB65F"/><path d="M7.104 54.795H3.982A3.982 3.982 0 010 50.813V18.737c0-2.199 1.783-3.982 3.982-3.982h2.875v.008a3.983 3.983 0 00-3.735 3.974v32.076c0 2.2 1.783 3.982 3.982 3.982zM23.958 5.206a3.983 3.983 0 00-3.763 2.678l-1.454 4.195a3.982 3.982 0 01-3.762 2.676h-2.672v-.025a3.981 3.981 0 003.312-2.651l1.453-4.195a3.982 3.982 0 013.763-2.678h3.123z" fill="#E29A4B"/><path d="M60 25.592v25.22c0 2.2-1.783 3.983-3.982 3.983H3.982A3.982 3.982 0 010 50.813V25.592h60z" fill="#6A80F5"/><path d="M7.104 54.795H3.982A3.982 3.982 0 010 50.812v-25.22h3.122v25.22c0 2.2 1.783 3.983 3.982 3.983z" fill="#5B70DE"/><path d="M29.999 51.06c9.162 0 16.59-7.428 16.59-16.59 0-9.163-7.428-16.591-16.59-16.591-9.163 0-16.59 7.428-16.59 16.59 0 9.163 7.427 16.591 16.59 16.591z" fill="#F3F5FA"/><path d="M41.73 34.47c0 3.454-1.493 6.559-3.87 8.707A11.684 11.684 0 0130 46.2c-3.025 0-5.782-1.145-7.862-3.024a11.7 11.7 0 01-3.87-8.708c0-3.454 1.494-6.56 3.87-8.706A11.68 11.68 0 0130 22.74c3.026 0 5.781 1.145 7.862 3.024a11.697 11.697 0 013.869 8.706z" fill="#566368"/><path d="M38.294 26.174a11.702 11.702 0 013.421 8.893c-3.2.162-6.45-.978-8.893-3.42a11.697 11.697 0 01-3.42-8.893c3.198-.163 6.45.978 8.892 3.42zM27.177 37.292a11.702 11.702 0 013.421 8.893 11.7 11.7 0 01-8.894-3.42 11.696 11.696 0 01-3.42-8.893c3.2-.163 6.45.977 8.893 3.42z" fill="#6F7B7F"/><path d="M30 47.119c-6.976 0-12.65-5.675-12.65-12.65 0-6.975 5.674-12.65 12.65-12.65 6.974 0 12.648 5.675 12.648 12.65 0 6.975-5.674 12.65-12.649 12.65zm0-23.462c-5.963 0-10.814 4.85-10.814 10.812S24.036 45.282 30 45.282c5.962 0 10.813-4.85 10.813-10.813 0-5.962-4.85-10.813-10.813-10.813z" fill="#435054"/><path d="M29.998 29.76a4.714 4.714 0 00-4.709 4.71A4.714 4.714 0 0030 39.179a4.714 4.714 0 004.708-4.71 4.715 4.715 0 00-4.709-4.709z" fill="#435054"/><path d="M35.96 13.837h7.217c.949 0 1.718-.769 1.718-1.718v-1.89c0-.949-.77-1.718-1.718-1.718H35.96c-.949 0-1.718.769-1.718 1.718v1.89c0 .949.77 1.718 1.718 1.718z" fill="#E5E9EA"/><path d="M43.177 14.756h-7.216a2.64 2.64 0 01-2.637-2.637v-1.89a2.64 2.64 0 012.637-2.636h7.216a2.64 2.64 0 012.637 2.636v1.89a2.64 2.64 0 01-2.637 2.637zm-7.216-5.327a.8.8 0 00-.8.8v1.89a.8.8 0 00.8.8h7.216a.8.8 0 00.8-.8v-1.89a.8.8 0 00-.8-.8h-7.216z" fill="#E29A4B"/><path d="M11.407 51.396a3.32 3.32 0 100-6.642 3.32 3.32 0 000 6.642z" fill="#323B6F"/></svg>
